!!!COM: Corelli, Arcangelo
!!!OTL: 
!!!ONM: Opus 5, No. 2
!!!OMV: 5
!!!CDT: 1653/2/17/-1713/1/8/
!!!OCY: Italia
**kern	**kern	**kern	**kern
*clefC	*clefG	*clefG	*clefG
*k[b-]	*k[b-]	*k[b-]	*k[b-]
*F:	*F:	*F:	*F:
*M3/4	*M3/4	*M3/4	*M3/4
=1	=1	=1	=1
4BB-	2.r	2.r	4r
[2B-	.	.	4b-
.	.	.	4dd
=2	=2	=2	=2
4B-]	2.r	2.r	4cc
[2A	.	.	4ff
.	.	.	4f
=3	=3	=3	=3
4A]	2.r	2.r	4b-
4G	.	.	4ee-
4E-	.	.	4gg
=4	=4	=4	=4
2F	2.r	2.r	4a
.	.	.	4ff
4D	.	.	4bb-
=5	=5	=5	=5
4E-	2.r	2.r	8ee-
.	.	.	8dd
4F	.	.	2cc
4FF	.	.	.
=6	=6	=6	=6
4BB-	4r	2.r	4b-
[2F	4f	.	4a
.	4a	.	4cc
=7	=7	=7	=7
4F]	4g	2.r	4b-
[2E	4g	.	4cc
.	4c	.	4e
=8	=8	=8	=8
4E]	4A	2.r	4f
4D	4f	.	4b-
4BB-	4f	.	4dd
=9	=9	=9	=9
2C	4c	2.r	4e
.	2r	.	4cc
4AA	.	.	4ff
=10	=10	=10	=10
4BB-	2.r	2.r	8b-
.	.	.	8a
2C	.	.	2g
=11	=11	=11	=11
2.FF	2r	2.r	4f
.	.	.	4ff
.	4f	.	4a
=12	=12	=12	=12
2.r	4g	2.r	4b-
.	2r	.	8cc
.	.	.	8dd
.	.	.	4ee-
=13	=13	=13	=13
2.r	4f	2.r	4a
.	2r	.	4dd
.	.	.	4d
=14	=14	=14	=14
2.r	2.r	2.r	4e-
.	.	.	4g
.	.	.	4cc
=15	=15	=15	=15
4r	4r	2.r	4d
4BB-	4d	.	4f
4D	4f	.	4b-
=16	=16	=16	=16
4C	4c	2.r	4b-
4F	2r	.	8cc
.	.	.	8b-
4FF	.	.	4a
=17	=17	=17	=17
4BB-	4B-	2.r	4a 4d
[2E-	2r	.	4g
.	.	.	4cc
=18	=18	=18	=18
4E-]	4f	2.r	4a
4D	2r	.	4b-
4BB-	.	.	4dd
=19	=19	=19	=19
4E-	4b-	2.r	4gg
4F	2f	.	4.cc
4FF	.	.	.
.	.	.	16b-
.	.	.	16cc
=20	=20	=20	=20
2BB-	4dd	2.r	4r
.	4dd	.	4bb-
4B-	4b-	.	4bb-
=21	=21	=21	=21
4E	2.cc	2.r	4bb-
4F#	.	.	8aa
.	.	.	8gg
4D	.	.	4aa
=22	=22	=22	=22
4G	2b-	2.r	4aa
4B-	.	.	4dd
4c	4b-	.	4gg
=23	=23	=23	=23
4d	2.r	2.r	4gg 4a 4d
2D	.	.	8ff#
.	.	.	8ee
.	.	.	4ff#
=24	=24	=24	=24
4GG	2.r	2.r	4G
[2G	.	.	4g
.	.	.	4b-
=25	=25	=25	=25
4G]	2.r	2.r	4a
[2F	.	.	4dd
.	.	.	4d
=26	=26	=26	=26
4F]	2.r	2.r	4g
[2E-	.	.	4cc
.	.	.	4c
=27	=27	=27	=27
4E-]	2.r	2.r	4f
4D	.	.	4b-
4BB-	.	.	4dd
=28	=28	=28	=28
4E-	4b-	2.r	4gg
2F	2a	.	4cc
.	.	.	4ff
=29	=29	=29	=29
4r	4f	2.r	4dd
4B-	2dd	.	2bb-
4d	.	.	.
=30	=30	=30	=30
4c	2.r	2.r	4r
4f	.	.	4ff
4F	.	.	4aa
=31	=31	=31	=31
4r	2.r	2.r	4gg
4c	.	.	4ccc
4e-	.	.	4cc
=32	=32	=32	=32
4d	2.r	2.r	4r
4g	.	.	4gg
4G	.	.	4bb-
=33	=33	=33	=33
4r	2r	2.r	4aa
4d	.	.	4ddd
4f	4dd	.	4ddd
=34	=34	=34	=34
4G	2.ee-	2.r	4ddd
4A	.	.	8ccc
.	.	.	8bb-
4F	.	.	4ccc
=35	=35	=35	=35
4BB-	2dd	2.r	4ccc
4B-	.	.	4ff
4d	4dd	.	4bb-
=36	=36	=36	=36
4E	2.cc	2.r	4bb-
4F#	.	.	8aa
.	.	.	8gg
4D	.	.	4aa
=37	=37	=37	=37
4GG	2b-	2.r	4aa
4G	.	.	4dd
4B-	4b-	.	4gg
=38	=38	=38	=38
4C#	4a	2.r	4gg
4D	2a	.	2ff
4F	.	.	.
=39	=39	=39	=39
4G	2g	2.r	4ee-
4A	.	.	4cc#
4B-	4r	.	8dd
.	.	.	8f
=40	=40	=40	=40
4G	2.r	2.r	8e
.	.	.	8d
4A	.	.	8A
.	.	.	8e
4AA	.	.	8dd
.	.	.	8cc#
=41	=41	=41	=41
2.D	2.r	2.r	8dd
.	.	.	8ff
.	.	.	8aa
.	.	.	8ff
.	.	.	8dd
.	.	.	8ff
=42	=42	=42	=42
4G	2.r	2.r	8b
.	.	.	8dd
2GG	.	.	8gg
.	.	.	8dd
.	.	.	8b
.	.	.	8gg
=43	=43	=43	=43
4c	2.r	2.r	8ee-
.	.	.	8cc
2C	.	.	8ee-
.	.	.	8gg
.	.	.	8ee-
.	.	.	8cc
=44	=44	=44	=44
4F	2.r	2.r	8a
.	.	.	8cc
2FF	.	.	8ff
.	.	.	8cc
.	.	.	8a
.	.	.	8ff
=45	=45	=45	=45
4B-	2.r	2.r	8dd
.	.	.	8b-
2BB-	.	.	8dd
.	.	.	8ff
.	.	.	8b-
.	.	.	8dd
=46	=46	=46	=46
4d	2.r	2.r	8f#
.	.	.	8a
2D	.	.	8dd
.	.	.	8a
.	.	.	8f#
.	.	.	8dd
=47	=47	=47	=47
4G	2.r	2.r	8b-
.	.	.	8g
2GG	.	.	8b-
.	.	.	8dd
.	.	.	8b-
.	.	.	8g
=48	=48	=48	=48
4c	2.r	2.r	8e
.	.	.	8g
2C	.	.	8cc
.	.	.	8g
.	.	.	8e
.	.	.	8cc
=49	=49	=49	=49
2F	2.r	2.r	4a
.	.	.	4f
4D	.	.	4b-
=50	=50	=50	=50
2E-	2.r	2.r	4r
.	.	.	4g
4C	.	.	4cc
=51	=51	=51	=51
2F	4r	2.r	4r
.	4f	.	4a
4D	4r	.	4dd
=52	=52	=52	=52
2G	4r	2.r	4r
.	4g	.	4b-
4GG	4r	.	4ee-
=53	=53	=53	=53
2AA	4r	2.r	4r
.	4a	.	4cc
4FF	4r	.	4ff
=54	=54	=54	=54
4BB-	2.r	2.r	4r
[2B-	.	.	4dd
.	.	.	4gg
=55	=55	=55	=55
4B-]	2.r	2.r	4cc
[2A	.	.	4ff
.	.	.	4f
=56	=56	=56	=56
4A]	2.r	2.r	4B-
[2G	.	.	4b-
.	.	.	4ee-
=57	=57	=57	=57
4G]	2.r	2.r	4a
[2F	.	.	4dd
.	.	.	4d
=58	=58	=58	=58
4F]	2.r	2.r	4G
[2E-	.	.	4g
.	.	.	4cc
=59	=59	=59	=59
4E-]	2.r	2.r	4f
4D	.	.	4b-
4BB-	.	.	4dd
=60	=60	=60	=60
4E-	4b-	2.r	4gg
4F	2a	.	4cc
4FF	.	.	4ff
=61	=61	=61	=61
4r	4f	2.r	4dd
4d	2dd	.	[2bb-
4g	.	.	.
=62	=62	=62	=62
4c	2.cc	2.r	4bb-]
4f	.	.	[2aa
4F	.	.	.
=63	=63	=63	=63
4BB-	2.b-	2.r	4aa]
4B-	.	.	[2gg
4e-	.	.	.
=64	=64	=64	=64
4A	2.a	2.r	4gg]
4d	.	.	[2ff
4D	.	.	.
=65	=65	=65	=65
4GG	2.g	4b-	4ff]
4G	.	2r	[2ee-
4c	.	.	.
=66	=66	=66	=66
4F	2.f	2.r	4ee-]
4B-	.	.	4dd
4d	.	.	4ff
=67	=67	=67	=67
4E-	4b-	2.r	4gg
4F	2f	.	2cc
4FF	.	.	.
=68	=68	=68	=68
2BB-	2d	2.r	2b-
4D	4r	.	4ff
=69	=69	=69	=69
2E-	2r	2.r	2gg
4E-	4g	.	4b-
=70	=70	=70	=70
2E-	2f	2.r	2a
4D	4b-	.	4ff
=71	=71	=71	=71
4E-	4b-	2.r	4gg
4F	2f	.	2cc
4FF	.	.	.
=72	=72	=72	=72
2.BB-	2.B-	2.r	2.d 2.b-
==	==	==	==
*-	*-	*-	*-
!!!RWG: This file only contains pitch and duration data.
!!!RWG: Transposing instruments are not transposed.
!!!RWG: Durations of rests and tied notes may be interpreted.
!!!RWG: Key is interpreted using the Humdrum key tool.
!!!SCA: 
!!!YOR: 
!!!AGN: violin
!!!AFT: stage1
!!!ENC: F. Bennion
!!!END: 1997/04/15
!!!AST: baroque
!!!YEC: Copyright 1994, Center for Computer Assisted Research in the Humanities
!!!YEM: Rights to all derivative electronic formats reserved.
!!!YEM: Refer to licensing agreement for further details.
!!!YEN: United States of America
!!!EED: W.B. Hewlett
!!!KEY: 1017201669
!!!EMD: Converted from MuseData to Humdrum Aug 9, 1999, by Bret Aarden using muse2kern.
!!!VTS: 1178294194
